!!!!SEGMENT: pl-kk--kk-i-34--001-004_anonim--missa-sanctus.krn
!!!id: 16xx:1330
!!!COM: Anonim
!!!COM-rism: pe30004985
!!!CDT:
!!!CNT:
!!!OTL: Missa – Sanctus
!!!PDT:
!!!SMS-siglum: PL-Kk
!!!SMS-shelfmark: Kk.I.34
!!!NIFC-rismID: 1001156614
!!!URL-scan: http://repozytorium.nifc.pl/skany/pl-kk-nut--i-34
!!!ONB-nifc: UWAGA: wg RISM obsada A, T (2), B. W zbiorze: 001 (Missa) – 1. Kyrie, 2. Et in terra, 3. Patrem, 4. Sanctus, 5. Agnus Dei; 002 – Rorate caeli, 003 – Rorate caeli
!!!SMS-variant: Basso PL-Kk Kk.I.34 s. 0015-0016
!!!SMS-altvar: Basso PL-Kk Kk.I.34 s. 0019-0020
**kern	**text	**kern	**text	**kern	**text	**kern	**text
*part4	*part4	*part3	*part3	*part2	*part2	*part1	*part1
*staff4	*staff4	*staff3	*staff3	*staff2	*staff2	*staff1	*staff1
*I"[Bassus]	*	*I"[Tenor 2]	*	*I"[Tenor 1]	*	*I"[Altus]	*
*I'B	*	*I'T 2	*	*I'T 1	*	*I'A	*
*clefF4	*	*clefC4	*	*clefC3	*	*clefC1	*
*k[b-]	*	*k[b-]	*	*k[b-]	*	*k[b-]	*
*F:	*	*F:	*	*F:	*	*F:	*
*M2/2	*	*M2/2	*	*M2/2	*	*M2/2	*
*met(C|)	*	*met(C|)	*	*met(C|)	*	*met(C|)	*
2G\	San-	4G/	San-	4r	.	1b-	San-
.	.	2B-\	.	4G/	San-	.	.
!LO:TX:t=P:problem:kreska pseudotaktowa	!	!	!	!LO:TX:t=P:problem:przekreślona synkopowana wartość	!	!	!
2GG/	-ct(us)	.	.	2d\	-ct(us)	.	.
!	!	!LO:TX:t=P:problem:kreska pseudotaktowa	!	!	!	!	!
.	.	4c\	.	.	.	.	.
*	*ij	*	*	*	*	*	*
!	!	!	!	!LO:TX:t=P:problem:przekreślona synkopowana wartość	!	!LO:TX:t=P:problem:kreska pseudotaktowa	!
4.D\	San-	4.d\	.	2A/	ſa-	1a	-ct(us)
8E\	.	16c\LL	.	.	.	.	.
.	.	16B-\JJ	.	.	.	.	.
!	!	!LO:TX:t=P:problem:kreska pseudotaktowa	!	!LO:TX:t=P:problem:przekreślona synkopowana wartość	!	!	!
8F\L	.	2A/	-ct(us)	2c/	.	.	.
8G\J	.	.	.	.	.	.	.
!LO:TX:t=P:problem:kreska pseudotaktowa	!	!	!	!	!	!	!
4A\	-ct(us)	.	.	.	.	.	.
=1-	=1-	=1-	=1-	=1-	=1-	=1-	=1-
*	*	*	*ij	*	*	*	*
4D/	San-	4.B-\	San-	2B-/	.	4.b-\	San-
4GG/	.	.	.	.	.	.	.
.	.	8c\	.	.	.	8cc\	.
!LO:TX:t=P:problem:kreska pseudotaktowa	!	!LO:TX:t=P:problem:kreska pseudotaktowa	!	!LO:TX:t=P:problem:kreska pseudotaktowa	!	!LO:TX:t=P:problem:kreska pseudotaktowa	!
2D/	.	2d\	-ct(us)	2A/	.	2dd\	.
*	*	*	*Xij	*	*	*	*
1GG	-ct(us)	4G/	San-	1G	-ct(us)	2dd\	-ct(us)
*	*Xij	*	*	*	*	*	*
.	.	4A/	.	.	.	.	.
!	!	!	!	!	!	!LO:TX:t=P:problem:kreska pseudotaktowa	!
.	.	4B-\	.	.	.	2b-\	.
!	!	!LO:TX:t=P:problem:kreska pseudotaktowa	!	!	!	!	!
.	.	4c\	.	.	.	.	.
=2-	=2-	=2-	=2-	=2-	=2-	=2-	=2-
*	*	*	*	*	*ij	*	*
2GG/	San-	2d\	.	1g	San-	2g/	San-
2G\	-ct(us)	1d	-ct(us)	.	.	2dd\	.
!LO:LB:g=original	!	!	!	!	!	!	!
4G\	San-	.	.	2f\	.	2a\	.
4F\	.	.	.	.	.	.	.
!	!	!LO:TX:t=P:problem:kreska pseudotaktowa	!	!LO:TX:t=P:problem:kreska pseudotaktowa	!	!LO:TX:t=P:problem:kreska pseudotaktowa	!
4.E\	.	2c\	.	2e\	.	2cc\	.
16A\LL	.	.	.	.	.	.	.
!LO:TX:t=P:problem:kreska pseudotaktowa	!	!	!	!	!	!	!
16G\JJ	.	.	.	.	.	.	.
=3-	=3-	=3-	=3-	=3-	=3-	=3-	=3-
4F#X\	.	1d	S(an)-	1d	-ctus	2b-\	.
4G\	.	.	.	.	.	.	.
2D/	.	.	.	.	.	2a\	.
!	!	!LO:N:acc=#	!	!	!	!	!
!	!	!LO:TX:a:t=P:problem:# above	!	!	!	!LO:TX:t=P:problem:kreska pseudotaktowa	!
1GG	-ct(us)	2Bn\	-ct(us)	4d\	San-	1g	-ct(us)
.	.	.	.	8e\L	.	.	.
.	.	.	.	8f\J	.	.	.
.	.	4B\	D(o-	4g\	.	.	.
.	.	8B\	-mi)-	2g\	-ctus	.	.
*	*	*	*	*	*Xij	*	*
!	!	!LO:TX:t=P:problem:kreska pseudotaktowa	!	!	!	!	!
.	.	8A/	-n(us)	.	.	.	.
=4-	=4-	=4-	=4-	=4-	=4-	=4-	=4-
4G\	D(o-	2G/	De-	.	.	4dd\	D(o-
8G\	-mi)-	.	.	2g\	Do-	8dd\	-mi)-
8G\	-n(us)	.	.	.	.	8dd\	-n(us)
!	!	!	!	!	!	!LO:TX:t=P:problem:kreska pseudotaktowa	!
4C/	D(o-	4A/	-(us)	.	.	2ee\	De-
*	*	*	*ij	*	*	*	*
!	!	!LO:TX:t=P:problem:kreska pseudotaktowa:między nutą a kropką	!	!	!	!	!
8C/	-mi)-	4.c\	Do-	4g\	-mi-	.	.
!LO:TX:t=P:problem:kreska pseudotaktowa	!	!	!	!	!	!	!
8C/	-n(us)	.	.	.	.	.	.
8FF/L	De-	.	.	8f\L	-n(us)	2ff\	-(us)
8GG/	.	8B-y\	-mi-	16e\L	.	.	.
.	.	.	.	16d\JJ	.	.	.
8AA/	.	4A/	-nus	8c/L	De-	.	.
8FF/J	.	.	.	8d/J	.	.	.
!	!	!LO:TX:t=P:problem:kreska pseudotaktowa:między nutą a kropką	!	!	!	!	!
8C/L	.	2.G/	De-	4.e\	.	2ee\	ſab-
8D/J	.	.	.	.	.	.	.
!LO:TX:t=P:problem:mixed beam	!	!	!	!	!	!	!
8E\L	.	.	.	.	.	.	.
!LO:TX:t=P:problem:kreska pseudotaktowa	!	!	!	!	!	!	!
8C/J	.	.	.	8f\	.	.	.
=5-	=5-	=5-	=5-	=5-	=5-	=5-	=5-
4G\	.	.	.	4g\	-(us)	2.dd\	.
4D\	-u(s)	4A/	-us	4f\	ſab-	.	.
*	*	*	*Xij	*	*	*	*
4.A\	Sab-	4.A/	Sab-	4.a\	.	.	.
!	!	!	!	!	!	!LO:TX:t=P:problem:kreska pseudotaktowa	!
.	.	.	.	.	.	4cc#X\	-ba-
!LO:TX:t=P:problem:kreska pseudotaktowa	!	!	!	!	!	!	!
8A\	-ba-	8A/	-ba-	8a\	-ba-	.	.
!	!	!LO:LB:g=original	!	!LO:LB:g=original	!	!	!
4D/	-oth	4A/	-ot	4f\	-ot	4dd\	-oth
2D/	ple-	2A/	Ple-	2f\	Ple-	2dd\	Ple-
!	!	!LO:TX:t=P:problem:kreska pseudotaktowa	!	!	!	!	!
8D/	-ni	4A/	-ni	4f\	-ni	8dd\	-ni
8D/	ſu(nt)	.	.	.	.	8dd\	s(unt)
!	!	!	!	!	!	!LO:LB:g=original	!
=6-	=6-	=6-	=6-	=6-	=6-	=6-	=6-
2G\	Cae-	2B-\	ſunt	4g\	s(un)t	2dd\	ce-
.	.	.	.	4g\	c(ae)-	.	.
!LO:TX:t=P:problem:kreska pseudotaktowa	!	!	!	!	!	!LO:TX:t=P:problem:kreska pseudotaktowa	!
2C/	-li	4c\	C(ae)-	2g\	-li	2ccny\	-li
!	!	!LO:TX:t=P:problem:kreska pseudotaktowa	!	!	!	!	!
.	.	4e\	-li	.	.	.	.
!LO:PB:g=original	!	!	!	!	!	!	!
*	*	*	*	*	*ij	*	*ij
4Fny\	ple-	4.f\	C(ae)-	4a\	ple-	4cc\	ple-
8F\	-ni	.	.	8a\	-ni	8cc\	-ni
8F\	ſ(un)t	8e\	-li	8a\	s(un)t	8cc\	s(unt)
!	!	!LO:TX:t=P:problem:kreska pseudotaktowa	!	!	!	!	!
8BB-/L	c(ae)-	2d\	et	2f\	c(ae)-	4.cc\	ce-
8C/	.	.	.	.	.	.	.
8D/	.	.	.	.	.	.	.
!LO:TX:t=P:problem:kreska pseudotaktowa	!	!	!	!	!	!LO:TX:t=P:problem:kreska pseudotaktowa	!
8BB-/J	.	.	.	.	.	8ee\	.
=7-	=7-	=7-	=7-	=7-	=7-	=7-	=7-
4F\	-li	2c\	ter-	4f\	-li	8ff\L	.
*	*	*	*	*	*Xij	*	*
.	.	.	.	.	.	16cc\L	.
.	.	.	.	.	.	16dd\JJ	.
4C/	e(t)	.	.	4e\	et	4ee\	.
!LO:TX:t=P:problem:kreska pseudotaktowa	!	!LO:TX:t=P:problem:kreska pseudotaktowa	!	!	!	!	!
2G\	ter-	2B-\	.	2.g\	ter-	4dd\	-li
*	*	*	*	*	*	*	*Xij
.	.	.	.	.	.	4dd\	et
1D	.	1A	-ra	.	.	1dd	ter-
!	!	!	!	!LO:TX:a:t=P:problem:# above	!	!	!
.	.	.	.	8f#\L	.	.	.
.	.	.	.	8e\J	.	.	.
!	!	!	!	!LO:TX:t=P:problem:kreska pseudotaktowa	!	!	!
!	!	!	!	!LO:TX:a:t=P:problem:# above	!	!	!
.	.	.	.	2f#X\	-ra	.	.
=8-	=8-	=8-	=8-	=8-	=8-	=8-	=8-
!	!	!	!	!	!	!LO:TX:t=P:problem:kreska pseudotaktowa	!
2GG/	-ra	8B-\L	glo-	2g\	.	1dd	-ra
.	.	8c\J	.	.	.	.	.
.	.	4.d\	.	.	.	.	.
4G\	glo-	.	.	4r	.	.	.
.	.	8d\	-ri-	.	.	.	.
!	!	!LO:TX:t=P:problem:kreska pseudotaktowa	!	!LO:TX:t=P:problem:przekreślona synkopowana wartość	!	!	!
8F\L	.	4A/	-a	2d\	gl(o-	.	.
!LO:TX:t=P:problem:kreska pseudotaktowa	!	!	!	!	!	!	!
8E\J	.	.	.	.	.	.	.
*	*	*	*ij	*	*	*	*
8F\L	.	2A/	glo-	.	.	4.dd\	glo-
8E\J	.	.	.	.	.	.	.
8F\L	.	.	.	8d\	-ri)-	.	.
!LO:TX:t=P:problem:kreska pseudotaktowa	!	!	!	!	!	!	!
8G\J	.	.	.	8d\	-a	8dd\	-ri-
*	*	*	*	*	*ij	*	*
!	!	!	!	!LO:TX:t=P:problem:kreska pseudotaktowa	!	!LO:TX:t=P:problem:kreska pseudotaktowa	!
4A\	.	4A/	.	2fny\	gl(o-	2a\	-a
!	!	!LO:TX:t=P:problem:kreska pseudotaktowa	!	!	!	!	!
4AA/	-ri-	4B-/	.	.	.	.	.
=9-	=9-	=9-	=9-	=9-	=9-	=9-	=9-
*	*	*	*	*	*	*	*ij
4.BB-/	-a	8.c\	.	4f\	-ri)-	4cc\	glo-
.	.	16c\	-ri-	.	.	.	.
.	.	4F/	-a	4g\	-a	8cc\	-ri-
16AA/LL	.	.	.	.	.	8cc\	-a
*	*	*	*Xij	*	*Xij	*	*Xij
16GG/JJ	.	.	.	.	.	.	.
!	!	!	!	!	!	!LO:N:vis=2:problem:z chorągiewką	!
2D/	tu-	8B-\L	tu-	2a\	tu-	4b-\	tu-
.	.	8c\J	.	.	.	.	.
!	!	!	!	!	!	!LO:N:vis=2:problem:z chorągiewką	!
!	!	!LO:N:vis=2	!	!	!	!LO:TX:t=P:problem:kreska pseudotaktowa	!
.	.	4d\	.	.	.	4a\	.
!	!	!LO:TX:t=P:problem:# above	!	!	!	!	!
!LO:TX:t=P:problem:kreska pseudotaktowa	!	!LO:N:acc=#	!	!	!	!	!
1GG	-a	1Bn	-a	1g	-a	1g	-a
=10-	=10-	=10-	=10-	=10-	=10-	=10-	=10-
*M3/1	*	*M3/1	*	*M3/1	*	*M3/1	*
!	!	!LO:TX:t=P:problem:# above	!	!	!	!	!
1D	O-	1F#X	O-	00.r	.	1a	O-
1D	-ſan-	1F#	-ſan-	.	.	1a	-ſan-
!	!	!	!	!	!	!LO:SIC:v:t=custos b-	!
!LO:TX:t=P:problem:kreska pseudotaktowa	!	!	!	!	!	!LO:TX:t=P:problem:kreska pseudotaktowa	!
1D	-na	1F#	-na	.	.	1a	-na
!	!	!LO:LB:g=original	!	!	!	!LO:PB:g=original	!
=11-	=11-	=11-	=11-	=11-	=11-	=11-	=11-
0G	in	2G/	in	.	.	2b-\	in
.	.	2Fny/	.	.	.	2a\	ex-
.	.	2G/	ex-	.	.	2b-\	.
.	.	2A/	.	.	.	2cc\	.
1G	ex-	2B-y\	.	.	.	2dd\	.
!	!	!LO:TX:t=P:problem:kreska pseudotaktowa	!	!	!	!LO:TX:t=P:problem:kreska pseudotaktowa	!
.	.	2G/	.	.	.	2b-\	.
=12-	=12-	=12-	=12-	=12-	=12-	=12-	=12-
0F	-cel-	2A/	-cel-	00.r	.	2cc\	-cel-
.	.	2G/	.	.	.	2b-\	.
.	.	2A/	.	.	.	2cc\	.
.	.	2B-\	.	.	.	2dd\	.
1F	-ſis	2c\	.	.	.	2ee-X\	.
!	!	!	!	!	!	!LO:TX:t=P:problem:kreska pseudotaktowa	!
.	.	2d\	.	.	.	2ff\	.
!LO:LB:g=original	!	!	!	!	!	!	!
=13-	=13-	=13-	=13-	=13-	=13-	=13-	=13-
*	*ij	*	*	*	*	*	*
1C	o-	0B-	-ſis	.	.	0dd	.
1BB-	-ſan-	.	.	.	.	.	.
!	!	!LO:TX:t=P:problem:kreska pseudotaktowa	!	!	!	!	!
1BB-	-na	1B-	o-	.	.	1dd	-ſis
=14-	=14-	=14-	=14-	=14-	=14-	=14-	=14-
0BB-	in	1d	-ſan-	00.r	.	1ff	o-
.	.	2d\	.	.	.	2ff\	-ſan-
.	.	2c\	-na	.	.	2eeny\	.
!LO:TX:t=P:problem:kreska pseudotaktowa	!	!	!	!	!	!	!
1BB-	ex-	2B-\	.	.	.	2dd\	-na
!	!	!LO:TX:t=P:problem:kreska pseudotaktowa	!	!	!	!LO:TX:t=P:problem:kreska pseudotaktowa	!
.	.	2A/	.	.	.	2cc\	.
=15-	=15-	=15-	=15-	=15-	=15-	=15-	=15-
0BB-	-cel-	2B-\	in	.	.	2dd\	in
.	.	2A/	.	.	.	2cc\	.
.	.	2B-\	ex-	.	.	2dd\	.
.	.	2G/	.	.	.	2b-\	.
2F\	-ſis	2A/	.	.	.	2cc\	.
*	*Xij	*	*	*	*	*	*
!LO:TX:t=P:problem:kreska pseudotaktowa	!	!LO:TX:t=P:problem:kreska pseudotaktowa	!	!	!	!	!
2E\	in	2B-\	.	.	.	2dd\	.
=16-	=16-	=16-	=16-	=16-	=16-	=16-	=16-
1G	ex-	1G	-cel-	00.r	.	1b-	ex-
*	*	*lig	*	*	*	*	*
!	!	!	!	!	!	!LO:TX:t=P:problem:kreska pseudotaktowa	!
0D	-cel-	1G	-ſis	.	.	0a	-cel-
.	.	1F	.	.	.	.	.
*	*	*Xlig	*	*	*	*	*
=17-	=17-	=17-	=17-	=17-	=17-	=17-	=17-
!	!	!LO:TX:t=P:problem:kreska pseudotaktowa	!	!	!	!LO:TX:t=P:problem:kreska pseudotaktowa	!
0GG	-ſis	0.G	.	.	.	0.g	-ſis
!LO:TX:t=P:problem:kreska pseudotaktowa	!	!	!	!	!	!	!
1GG	O-	.	.	.	.	.	.
!	!	!	!	!LO:LB:g=original	!	!	!
=18-	=18-	=18-	=18-	=18-	=18-	=18-	=18-
1D	-ſan-	1F	o-	1d	O-	1a	O-
1.D	-na	1F	-ſan-	1d	-ſan-	1a	-ſan-
!	!	!	!	!	!	!LO:LB:g=original	!
!	!	!	!	!	!	!LO:TX:t=P:problem:kreska pseudotaktowa	!
.	.	1F	-na	1d	-na	1a	-na
*	*ij	*	*	*	*	*	*
2D/	o-	.	.	.	.	.	.
=19-	=19-	=19-	=19-	=19-	=19-	=19-	=19-
0G	-ſan-	0F	in	0d	in	0b-	in
!LO:TX:t=P:problem:kreska pseudotaktowa	!	!	!	!	!	!LO:TX:t=P:problem:kreska pseudotaktowa	!
1G	-na	1G	ex-	1d	ex-	1b-	ex-
!	!	!LO:LB:g=original	!	!	!	!	!
=20-	=20-	=20-	=20-	=20-	=20-	=20-	=20-
!	!	!	!	!	!	!LO:TX:t=vi-de	!
1F	in	1.A	-cel-	0f	-cel-	0cc	-cel-
2FF/	ex-	.	.	.	.	.	.
!	!	!LO:TX:t=P:problem:kreska pseudotaktowa	!	!	!	!	!
2GG/	.	2B-\	.	.	.	.	.
2AA/	.	1c	.	1f	-ſis	1cc	-ſis
2FF/	.	.	.	.	.	.	.
=21-	=21-	=21-	=21-	=21-	=21-	=21-	=21-
0BB-	-cel-	0.B-	-ſis	2f\	o-	0b-	in
.	.	.	.	2e\	.	.	.
.	.	.	.	2d\	.	.	.
.	.	.	.	2c/	.	.	.
!LO:TX:t=P:problem:kreska pseudotaktowa	!	!	!	!	!	!	!
1BB-	-ſis	.	.	1d	.	1b-	ex-
*	*Xij	*	*	*	*	*	*
=22-	=22-	=22-	=22-	=22-	=22-	=22-	=22-
*	*	*	*ij	*	*	*	*
1BB-	o-	1d	o-	1.d	-ſan-	2cc\	.
.	.	.	.	.	.	4dd\	-cel-
.	.	.	.	.	.	4ee\	.
1.BB-	-ſan-	1.d	-ſan-	.	.	1.ff	.
.	.	.	.	2d\	-na	.	.
.	.	.	.	1d	.	.	.
!LO:SIC:v:t=custos BB	!	!LO:TX:t=P:problem:kreska pseudotaktowa	!	!	!	!LO:TX:t=P:problem:kreska pseudotaktowa	!
2BB-/	-na	2c\	-na	.	.	2ee-X\	.
!LO:LB:g=original	!	!	!	!	!	!	!
=23-	=23-	=23-	=23-	=23-	=23-	=23-	=23-
2BB-/	in	0B-	in	0f	.	0dd	-ſis
2C/	.	.	.	.	.	.	.
2D/	.	.	.	.	.	.	.
2BB-/	.	.	.	.	.	.	.
1F	ex-	1A	ex-	1f	in	1cc	in
=24-	=24-	=24-	=24-	=24-	=24-	=24-	=24-
1G	.	0G	-cel-	0d	ex-	1b-	ex-
0D	-cel-	.	.	.	.	0a	-cel-
!	!	!LO:TX:a:t=P:problem:# above	!	!	!	!	!
.	.	1F#X	.	1d	-cel-	.	.
=25-	=25-	=25-	=25-	=25-	=25-	=25-	=25-
0.GG;l	-ſis	0.G;l	-ſis	0.d;l	-ſis	0.b-;l	-ſis
*	*	*	*Xij	*	*	*	*
=26||-	=26||-	=26||-	=26||-	=26||-	=26||-	=26||-	=26||-
*M3\1	*	*	*	*	*	*	*
0D	Be-	0A	Be-	1f	Be-	1d	Be-
.	.	.	.	1d	-ne-	1a	-ne-
!LO:TX:t=P:problem:kreska pseudotaktowa	!	!	!	!	!	!LO:TX:t=P:problem:kreska pseudotaktowa	!
1D	-ne-	1A	-ne-	1f	-dic-	1dd	-dic-
=27-	=27-	=27-	=27-	=27-	=27-	=27-	=27-
0F	-dic-	0A	-di-	0e	-t(us)	0cc	-t(us)
!LO:TX:t=P:problem:kreska pseudotaktowa	!	!LO:TX:t=P:problem:kreska pseudotaktowa	!	!	!	!	!
1E	-t(us)	1G	-ct(us)	1g	qui	1b-	qui
!	!	!	!	!LO:LB:g=original	!	!	!
=28-	=28-	=28-	=28-	=28-	=28-	=28-	=28-
1.F	qui	1.A	qui	1g	Ve-	2a\	Ve-
.	.	.	.	.	.	1a	-nit
.	.	.	.	2a\	-nit	.	.
2D/	.	2c\	ve-	2a\	q(ui)	2dd\	qui
!	!	!LO:TX:t=P:problem:kreska pseudotaktowa	!	!	!	!LO:TX:t=P:problem:kreska pseudotaktowa	!
1E	Ve-	1d	.	1g	ve-	1b-	Ve-
=29-	=29-	=29-	=29-	=29-	=29-	=29-	=29-
0AA	-nit	0e	-nit	0a	-nit	0cc	-nit
!LO:TX:t=P:problem:kreska pseudotaktowa	!	!	!	!	!	!LO:TX:t=P:problem:kreska pseudotaktowa	!
1AA	in	1e	in	1a	in	1cc	in
!	!	!	!	!	!	!LO:LB:g=original	!
=30-	=30-	=30-	=30-	=30-	=30-	=30-	=30-
1.A	no-	1.c	no-	1.a	no-	1.cc	no-
2E\	-mi-	2e\	-mi-	2g\	-mi-	2b-\	-mi-
!	!	!LO:SIC:v:t=custos c	!	!	!	!LO:TX:t=P:problem:kreska pseudotaktowa	!
!	!	!LO:TX:t=P:problem:kreska pseudotaktowa	!	!	!	!	!
1F	-ne	1A	-ne	1f	-ne	1a	-ne
!	!	!LO:LB:g=original	!	!	!	!	!
=31-	=31-	=31-	=31-	=31-	=31-	=31-	=31-
1.C	D(o)-	1.c	D(o-	1.e	D(o-	1.g	D(o-
2C/	-mi-	2c\	-mi)-	2e\	-mi)-	2f/	-mi)-
2C/	-ni	2c\	-ni	2e\	-ni	2g/	-ni
!	!	!	!	!	!	!LO:TX:t=P:problem:kreska pseudotaktowa	!
2C/	in	2c\	in	2e\	in	2g/	in
!LO:LB:g=original	!	!	!	!	!	!	!
=32-	=32-	=32-	=32-	=32-	=32-	=32-	=32-
1.F	No-	1.c	no-	1.f	N(o-	1.a	N(o-
2C/	-mi-	2d\	-(mi)-	2e\	-mi)-	2g/	-mi)-
!	!	!LO:TX:t=P:problem:kreska pseudotaktowa	!	!	!	!	!
1D	-ne	1c	-ne	1d	-ne	1f	-ne
=33-	=33-	=33-	=33-	=33-	=33-	=33-	=33-
1.A	D(o-	1.A	D(o-	1.c	D(o-	1.e	D(o-
2A\	-mi)-	2A/	-mi)-	2c/	-mi)-	2e/	-mi)-
2A\	-ni	2A/	-ni	2c/	-ni	2e/	-ni
*	*ij	*	*	*	*	*	*ij
!	!	!	!	!	!	!LO:TX:t=P:problem:kreska pseudotaktowa	!
2A\	in	2A/	in	2c/	in	2eeny\	in
=34-	=34-	=34-	=34-	=34-	=34-	=34-	=34-
1B-X	No-	1d	N(o-	1d	N(o-	1dd	N(o-
2G\	-mi-	2B-X\	-mi)-	2d\	-mi)-	2dd\	-mi)-
2F\	-ne	2A/	-ne	2f\	-ne	2dd\	-ne
2.A\	Do-	2.A/	D(o-	2.e\	D(o-	2.cc#X\	D(o-
4A\	-mi-	4A/	-mi)-	4e\	-mi)-	4cc#\	-mi)-
=35-	=35-	=35-	=35-	=35-	=35-	=35-	=35-
!LO:TX:b:i:t=Oſanna\nut\nſupra	!	!LO:TX:b:i:t=Oſanna\nut\nſupra	!	!LO:TX:b:i:t=Oſanna\nut\nS	!	!LO:TX:b:i:t=Oſanna\nut ſup	!
0.Dl	-ni	0.A;;l	-ni	0.d;l	-ni	0.dd	-ni
*	*Xij	*	*	*	*	*	*Xij
==	==	==	==	==	==	==	==
*-	*-	*-	*-	*-	*-	*-	*-
!!!system-decoration: [(s1,s2,s3,s4)]
!!!RDF**kern: l = terminal long
!!!ENC: Marta Lawrence
!!!END: 2021-07-27
!!!ENC: Mateusz Solarz
!!!END: 2021-07-05
